resources/svg/gift.svg

<svg xmlns="http://www.w3.org/2000/svg" viewBox="0 0 24 24" fill="currentColor"><path fill="none" stroke="currentColor" stroke-width="2" d="M3,11 L21,11 L21,23 L3,23 L3,11 Z M2,11 L2,7 L22,7 L22,11 L2,11 Z M12,23 L12,7 L12,23 Z M7,7 L12,7 C12,7 10,2 7,2 C3.5,2 3,7 7,7 Z M17.1843819,7 L12.1843819,7 C12.1843819,7 14,2 17.1843819,2 C20.5,2 21.1843819,7 17.1843819,7 Z"/></svg>

<svg viewBox="0 0 24 24"><path fill="none" stroke="currentColor" stroke-width="2" d="M3 11h18v12H3V11zm-1 0V7h20v4H2zm10 12V7v16zM7 7h5s-2-5-5-5C3.5 2 3 7 7 7zm10.184 0h-5s1.816-5 5-5c3.316 0 4 5 0 5z"/></svg>
